build/img/wire-c.svg

<svg width="12" height="12" viewBox="0 0 12 12" fill="none" xmlns="http://www.w3.org/2000/svg">
<circle cx="6" cy="6" r="6" fill="#1A1A1A"/>
<path d="M7.77863 6.858C7.56263 7.749 6.93263 8.091 6.15863 8.091C5.22263 8.091 4.45763 7.263 4.45763 5.706C4.45763 4.194 5.22263 3.384 6.20363 3.384C6.92363 3.384 7.53563 3.681 7.77863 4.59H9.00263C8.78663 3.231 7.74263 2.358 6.21263 2.358C4.31363 2.358 3.12563 3.645 3.12563 5.706C3.12563 7.794 4.23263 9.117 6.17663 9.117C7.73363 9.117 8.83163 8.181 9.00263 6.858H7.77863Z" fill="white"/>
</svg>

<svg width="12" height="12" viewBox="0 0 12 12" fill="none" xmlns="http://www.w3.org/2000/svg"><circle cx="6" cy="6" r="6" fill="#1A1A1A"/><path d="M7.779 6.858c-.216.891-.846 1.233-1.62 1.233-.936 0-1.701-.828-1.701-2.385 0-1.512.765-2.322 1.746-2.322.72 0 1.332.297 1.575 1.206h1.224c-.216-1.359-1.26-2.232-2.79-2.232-1.9 0-3.087 1.287-3.087 3.348 0 2.088 1.107 3.411 3.05 3.411 1.558 0 2.656-.936 2.827-2.259H7.779z" fill="#fff"/></svg>
